X: 1
T: The Basque Jig
C: Marin Marais (1656-1728) French Composer and Bass Viol Player
D: "Barn Dance" by the English Country Dance Band
M: 6/8
L: 1/8
Q:1/4=167
K:G
d|:"C"g2d"C"g2d|"G"Bcd"G"G3|"D"ABc "G"def|"C"gfe"G"d2d|
"C"g2d"C"g2d|"G"Bcd"G"G3|"D"ABc "G"def|1 "G"g3 "D"z2d :|2 "G"g3 "D"f3|:
"C".e.ee "D"f2e|"G".d.dd "C"e2d|"C".c2c "D"d2c|"G"B2c"C"d3|
"C".e.ee "D"f2e|"G".d.dd "C"e2d|"C"c2A "D"FGA|"G"G4 z2 :|
